icons/dashboard-squareB.svg

<svg width="24" height="24" viewBox="0 0 24 24" fill="none" xmlns="http://www.w3.org/2000/svg">
<path d="M20.4 17.5C19.5 19.6 17.4 21 15 21H9C6.6 21 4.5 19.6 3.6 17.5C4.5 15.4 6.6 14 9 14H15C17.4 14 19.5 15.4 20.4 17.5Z" fill="black"/>
<path fill-rule="evenodd" clip-rule="evenodd" d="M4.42775 17.5C5.27135 19.1556 7.01099 20.25 9 20.25H15C16.989 20.25 18.7286 19.1556 19.5722 17.5C18.7286 15.8444 16.989 14.75 15 14.75H9C7.01099 14.75 5.27135 15.8444 4.42775 17.5ZM2.91064 17.2046C3.93082 14.8241 6.30507 13.25 9 13.25H15C17.6949 13.25 20.0692 14.8241 21.0894 17.2046L21.216 17.5L21.0894 17.7954C20.0692 20.1759 17.6949 21.75 15 21.75H9C6.30507 21.75 3.93082 20.1759 2.91064 17.7954L2.78402 17.5L2.91064 17.2046Z" fill="black"/>
<path fill-rule="evenodd" clip-rule="evenodd" d="M9 3.75C6.11421 3.75 3.75 6.11421 3.75 9V15C3.75 15.2474 3.76723 15.4856 3.80202 15.7179C5.02464 14.1909 6.91648 13.25 9 13.25H15C17.0835 13.25 18.9754 14.1909 20.198 15.7179C20.2328 15.4856 20.25 15.2474 20.25 15V9C20.25 6.02236 17.894 3.75 15 3.75H9ZM2.25 9C2.25 5.28579 5.28579 2.25 9 2.25H15C18.706 2.25 21.75 5.17764 21.75 9V15C21.75 16.0225 21.5201 16.9369 21.0708 17.8354L20.3476 19.2818L19.7106 17.7954C18.9308 15.9759 17.1051 14.75 15 14.75H9C6.89493 14.75 5.06918 15.9759 4.28936 17.7954L3.65236 19.2818L2.92918 17.8354C2.47991 16.9369 2.25 16.0225 2.25 15V9Z" fill="black"/>
<path fill-rule="evenodd" clip-rule="evenodd" d="M15.5303 10.4697C15.8232 10.7626 15.8232 11.2374 15.5303 11.5303L12.5303 14.5303C12.2374 14.8232 11.7626 14.8232 11.4697 14.5303C11.1768 14.2374 11.1768 13.7626 11.4697 13.4697L14.4697 10.4697C14.7626 10.1768 15.2374 10.1768 15.5303 10.4697Z" fill="black"/>
</svg>

<svg xmlns="http://www.w3.org/2000/svg" fill="none" viewBox="0 0 24 24">
  <path fill="#000" d="M20.4 17.5c-.9 2.1-3 3.5-5.4 3.5H9c-2.4 0-4.5-1.4-5.4-3.5.9-2.1 3-3.5 5.4-3.5h6c2.4 0 4.5 1.4 5.4 3.5Z"/>
  <path fill="#000" fill-rule="evenodd" d="M4.428 17.5C5.27 19.156 7.01 20.25 9 20.25h6c1.989 0 3.729-1.094 4.572-2.75-.843-1.656-2.583-2.75-4.572-2.75H9c-1.989 0-3.729 1.094-4.572 2.75Zm-1.517-.295C3.93 14.825 6.305 13.25 9 13.25h6c2.695 0 5.07 1.574 6.09 3.955l.126.295-.127.295c-1.02 2.38-3.394 3.955-6.089 3.955H9c-2.695 0-5.07-1.574-6.09-3.955l-.126-.295.127-.295Z" clip-rule="evenodd"/>
  <path fill="#000" fill-rule="evenodd" d="M9 3.75C6.114 3.75 3.75 6.114 3.75 9v6c0 .247.017.486.052.718A6.638 6.638 0 0 1 9 13.25h6c2.084 0 3.975.94 5.198 2.468A4.83 4.83 0 0 0 20.25 15V9c0-2.978-2.356-5.25-5.25-5.25H9ZM2.25 9c0-3.714 3.036-6.75 6.75-6.75h6c3.706 0 6.75 2.928 6.75 6.75v6a6.17 6.17 0 0 1-.68 2.835l-.722 1.447-.637-1.487c-.78-1.82-2.606-3.045-4.711-3.045H9c-2.105 0-3.93 1.226-4.71 3.045l-.638 1.487-.723-1.447A6.17 6.17 0 0 1 2.25 15V9Z" clip-rule="evenodd"/>
  <path fill="#000" fill-rule="evenodd" d="M15.53 10.47a.75.75 0 0 1 0 1.06l-3 3a.75.75 0 1 1-1.06-1.06l3-3a.75.75 0 0 1 1.06 0Z" clip-rule="evenodd"/>
</svg>
